src/scalable/apps/tenacity.svg

<svg width="64" height="64" version="1.1" viewBox="0 0 64 64" xmlns="http://www.w3.org/2000/svg">
 <rect x="6" y="6" width="52" height="52" rx="8" ry="8" fill="#d7262e" fill-rule="evenodd" stroke="#9f2d32" stroke-linecap="round" stroke-linejoin="round" stroke-width="2"/>
 <rect x="6" y="6" width="52" height="52" rx="8" ry="8" fill="#d7262e" fill-rule="evenodd" stroke-linecap="round" stroke-linejoin="round" stroke-width=".87362"/>
 <rect x="10" y="10" width="44" height="44" rx="4" ry="4" fill="#ffffff" fill-rule="evenodd" stroke-linecap="round" stroke-linejoin="round" stroke-width=".73921"/>
 <path d="M19 28.6667H6V35.3333H19V45.3333H25.5V38.6667H32V52H38.5V42H45V35.3333H58V28.6667H45V22H38.5V12H32V25.3333H25.5V18.6667H19V28.6667Z" fill="#d7262e"/>
</svg>

<svg xmlns="http://www.w3.org/2000/svg" width="64" height="64"><rect width="52" height="52" x="6" y="6" fill="#d7262e" fill-rule="evenodd" stroke="#9f2d32" stroke-linecap="round" stroke-linejoin="round" stroke-width="2" rx="8" ry="8"/><rect width="52" height="52" x="6" y="6" fill="#d7262e" fill-rule="evenodd" rx="8" ry="8"/><rect width="44" height="44" x="10" y="10" fill="#fff" fill-rule="evenodd" rx="4" ry="4"/><path fill="#d7262e" d="M19 28.667H6v6.666h13v10h6.5v-6.666H32V52h6.5V42H45v-6.667h13v-6.666H45V22h-6.5V12H32v13.333h-6.5v-6.666H19v10Z"/></svg>
